src/Brands/wordpress/logo.svg

<svg height="475pt" viewBox="0 0 1400 475" width="1400pt" xmlns="http://www.w3.org/2000/svg"><g fill="#32373c"><path d="m780.925781 286.328125h-1.84375c-9.492187 0-10.808593-2.371094-10.808593-14.5v-57.210937h12.652343c27.417969 0 32.429688 20.035156 32.429688 35.589843 0 16.082032-5.011719 36.121094-32.429688 36.121094m-111.257812-36.648437v-35.0625h10.808594c11.863281 0 17.140625 8.171875 17.140625 17.660156 0 9.230469-5.277344 17.402344-17.140625 17.402344zm110.46875-42.972657h-47.195313v5.007813c14.765625 0 17.136719 3.164062 17.136719 21.882812v33.75c0 18.714844-2.371094 22.144532-17.136719 22.144532-11.332031-1.582032-18.980468-7.648438-29.527343-19.246094l-12.125-13.183594c16.34375-2.898437 25.042968-13.183594 25.042968-24.785156 0-14.496094-12.390625-25.570313-35.589843-25.570313h-46.402344v5.007813c14.761719 0 17.136719 3.164062 17.136719 21.882812v33.75c0 18.714844-2.375 22.144532-17.136719 22.144532v5.007812h52.464844v-5.007812c-14.761719 0-17.136719-3.429688-17.136719-22.144532v-9.492187h4.480469l29.265625 36.644531h76.722656c37.703125 0 54.046875-20.035156 54.046875-44.03125 0-23.988281-16.34375-43.761719-54.046875-43.761719"/><path d="m487.492188 259.4375 18.191406-53.789062c5.273437-15.554688 2.902344-20.035157-13.972656-20.035157v-5.273437h49.566406v5.273437c-16.609375 0-20.5625 3.953125-27.15625 23.203125l-30.054688 90.167969h-3.425781l-26.894531-82.523437-27.417969 82.523437h-3.429687l-29.261719-90.167969c-6.328125-19.25-10.546875-23.203125-25.839844-23.203125v-5.273437h58.53125v5.273437c-15.558594 0-19.777344 3.691407-14.238281 20.035157l17.664062 53.789062 26.628907-79.097656h5.011718zm0 0"/><path d="m577.128906 211.453125c-24.253906 0-32.691406 21.878906-32.691406 39.015625 0 17.402344 8.4375 39.023438 32.691406 39.023438 24.523438 0 32.957032-21.621094 32.957032-39.023438 0-17.136719-8.433594-39.015625-32.957032-39.015625m0 86.472656c-29 0-52.730468-21.351562-52.730468-47.457031 0-25.835937 23.730468-47.191406 52.730468-47.191406 29.003907 0 52.730469 21.355469 52.730469 47.191406 0 26.105469-23.726562 47.457031-52.730469 47.457031"/><path d="m893.5 189.832031h-15.027344v45.875h15.027344c14.765625 0 21.617188-10.28125 21.617188-22.671875 0-12.65625-6.851563-23.203125-21.617188-23.203125m5.800781 99.394532v5.273437h-60.375v-5.273437c17.664063 0 20.828125-4.480469 20.828125-30.847657v-42.179687c0-26.367188-3.164062-30.585938-20.828125-30.585938v-5.273437h54.574219c27.15625 0 42.1875 13.972656 42.1875 32.695312 0 18.191407-15.03125 32.425782-42.1875 32.425782h-15.027344v12.917968c0 26.367188 3.164063 30.847657 20.828125 30.847657"/><path d="m977.078125 249.679688v-35.0625h10.808594c11.863281 0 17.140625 8.171875 17.140625 17.660156 0 9.230469-5.277344 17.402344-17.140625 17.402344zm139.726563 20.039062-1.316407 4.746094c-2.371093 8.699219-5.273437 11.863281-23.992187 11.863281h-3.691406c-13.707032 0-16.082032-3.164062-16.082032-21.882812v-12.125c20.566407 0 22.148438 1.84375 22.148438 15.550781h5.007812v-39.28125h-5.007812c0 13.707031-1.582031 15.550781-22.148438 15.550781v-29.523437h14.5c18.71875 0 21.617188 3.164062 23.992188 11.863281l1.320312 5.007812h4.214844l-1.84375-24.78125h-77.511719v5.007813c14.761719 0 17.136719 3.164062 17.136719 21.882812v33.75c0 17.121094-2.019531 21.4375-13.65625 22.050782-11.066406-1.6875-18.660156-7.722657-29.050781-19.152344l-12.128906-13.183594c16.347656-2.898437 25.046875-13.183594 25.046875-24.785156 0-14.496094-12.390625-25.570313-35.589844-25.570313h-46.402344v5.007813c14.761719 0 17.132813 3.164062 17.132813 21.882812v33.75c0 18.714844-2.371094 22.144532-17.132813 22.144532v5.007812h52.464844v-5.007812c-14.761719 0-17.136719-3.429688-17.136719-22.144532v-9.492187h4.480469l29.265625 36.644531h108.355469l1.582031-24.78125zm0 0"/><path d="m1170.328125 297.925781c-10.546875 0-19.777344-5.535156-23.730469-8.964843-1.320312 1.320312-3.691406 5.277343-4.21875 8.964843h-5.007812v-36.378906h5.269531c2.113281 17.398438 14.238281 27.679688 29.792969 27.679688 8.4375 0 15.292969-4.746094 15.292969-12.652344 0-6.855469-6.066407-12.128906-16.875-17.136719l-15.027344-7.117187c-10.546875-5.015625-18.453125-13.714844-18.453125-25.3125 0-12.65625 11.863281-23.464844 28.210937-23.464844 8.699219 0 16.078125 3.164062 20.5625 6.855469 1.320313-1.058594 2.636719-3.957032 3.429688-7.121094h5.007812v31.113281h-5.535156c-1.847656-12.394531-8.703125-22.675781-22.671875-22.675781-7.386719 0-14.242187 4.21875-14.242187 10.8125 0 6.851562 5.539062 10.542969 18.195312 16.34375l14.496094 7.117187c12.660156 6.0625 17.664062 15.820313 17.664062 23.730469 0 16.609375-14.5 28.207031-32.160156 28.207031"/><path d="m1250.046875 297.925781c-10.546875 0-19.777344-5.535156-23.730469-8.964843-1.316406 1.320312-3.691406 5.277343-4.214843 8.964843h-5.011719v-36.378906h5.273437c2.109375 17.398438 14.234375 27.679688 29.792969 27.679688 8.433594 0 15.292969-4.746094 15.292969-12.652344 0-6.855469-6.066406-12.128906-16.875-17.136719l-15.027344-7.117187c-10.546875-5.015625-18.457031-13.714844-18.457031-25.3125 0-12.65625 11.863281-23.464844 28.210937-23.464844 8.703125 0 16.082032 3.164062 20.566407 6.855469 1.316406-1.058594 2.632812-3.957032 3.425781-7.121094h5.007812v31.113281h-5.535156c-1.847656-12.394531-8.703125-22.675781-22.671875-22.675781-7.382812 0-14.242187 4.21875-14.242187 10.8125 0 6.851562 5.539062 10.542969 18.195312 16.34375l14.5 7.117187c12.65625 6.0625 17.664063 15.820313 17.664063 23.730469 0 16.609375-14.5 28.207031-32.164063 28.207031"/><path d="m237.289063 118.644531c-65.527344 0-118.644532 53.117188-118.644532 118.644532 0 65.523437 53.117188 118.644531 118.644532 118.644531 65.523437 0 118.644531-53.121094 118.644531-118.644531 0-65.527344-53.121094-118.644532-118.644531-118.644532m0 7.117188c15.058593 0 29.664062 2.949219 43.40625 8.761719 6.609375 2.792968 12.980468 6.253906 18.941406 10.28125 5.90625 3.992187 11.464844 8.574218 16.511719 13.625 5.046875 5.046875 9.632812 10.601562 13.621093 16.507812 4.03125 5.960938 7.488282 12.335938 10.28125 18.941406 5.816407 13.746094 8.761719 28.351563 8.761719 43.410157 0 15.058593-2.945312 29.664062-8.761719 43.40625-2.792968 6.609375-6.25 12.980468-10.28125 18.941406-3.988281 5.910156-8.574218 11.464844-13.621093 16.511719s-10.605469 9.632812-16.511719 13.621093c-5.960938 4.03125-12.332031 7.488282-18.941406 10.28125-13.742188 5.816407-28.347657 8.761719-43.40625 8.761719-15.058594 0-29.664063-2.945312-43.410157-8.761719-6.605468-2.792968-12.980468-6.25-18.941406-10.28125-5.90625-3.988281-11.460937-8.574218-16.507812-13.621093-5.050782-5.046875-9.632813-10.601563-13.625-16.511719-4.027344-5.960938-7.488282-12.332031-10.28125-18.941406-5.8125-13.742188-8.761719-28.347657-8.761719-43.40625 0-15.058594 2.949219-29.664063 8.761719-43.410157 2.792968-6.605468 6.253906-12.980468 10.28125-18.941406 3.992187-5.90625 8.574218-11.460937 13.625-16.507812 5.046875-5.050782 10.601562-9.632813 16.507812-13.625 5.960938-4.027344 12.335938-7.488282 18.941406-10.28125 13.746094-5.8125 28.351563-8.761719 43.410157-8.761719"/><path d="m324.050781 189.855469c.421875 3.148437.664063 6.527344.664063 10.164062 0 10.03125-1.878906 21.308594-7.519531 35.410157l-30.199219 87.3125c29.394531-17.136719 49.160156-48.984375 49.160156-85.457032 0-17.191406-4.390625-33.351562-12.105469-47.429687m-85.027343 56.078125-29.667969 86.195312c8.859375 2.605469 18.226562 4.027344 27.933594 4.027344 11.511718 0 22.558593-1.984375 32.832031-5.601562-.261719-.425782-.507813-.875-.707031-1.363282zm65.011718-13.636719c0-12.222656-4.390625-20.679687-8.152343-27.265625-5.011719-8.148437-9.710938-15.039062-9.710938-23.1875 0-9.085937 6.890625-17.546875 16.601563-17.546875.4375 0 .855468.050781 1.28125.078125-17.589844-16.117187-41.027344-25.957031-66.765625-25.957031-34.542969 0-64.929688 17.722656-82.609375 44.5625 2.320312.074219 4.507812.121094 6.363281.121094 10.339844 0 26.351562-1.257813 26.351562-1.257813 5.324219-.3125 5.957032 7.515625.632813 8.148438 0 0-5.359375.625-11.316406.9375l36.003906 107.09375 21.640625-64.890625-15.40625-42.203125c-5.324219-.3125-10.367188-.9375-10.367188-.9375-5.332031-.316407-4.707031-8.460938.625-8.148438 0 0 16.324219 1.257813 26.039063 1.257813 10.339844 0 26.355469-1.257813 26.355469-1.257813 5.328125-.3125 5.957031 7.515625.628906 8.148438 0 0-5.363281.625-11.316406.9375l35.730468 106.277343 10.199219-32.316406c4.53125-14.125 7.191406-24.132812 7.191406-32.59375m-165.617187 4.988281c0 39.132813 22.742187 72.953125 55.726562 88.976563l-47.164062-129.214844c-5.488281 12.296875-8.5625 25.902344-8.5625 40.238281"/></g></svg>

<?xml version="1.0" encoding="UTF-8"?>
<svg xmlns="http://www.w3.org/2000/svg" xmlns:xlink="http://www.w3.org/1999/xlink" width="1400pt" height="475pt" viewBox="0 0 1400 475" version="1.1">
<g id="surface1">
<path style=" stroke:none;fill-rule:nonzero;fill:rgb(19.599915%,21.598816%,23.498535%);fill-opacity:1;" d="M 780.925781 286.328125 L 779.082031 286.328125 C 769.589844 286.328125 768.273438 283.957031 768.273438 271.828125 L 768.273438 214.617188 L 780.925781 214.617188 C 808.34375 214.617188 813.355469 234.652344 813.355469 250.207031 C 813.355469 266.289063 808.34375 286.328125 780.925781 286.328125 M 669.667969 249.679688 L 669.667969 214.617188 L 680.476563 214.617188 C 692.339844 214.617188 697.617188 222.789063 697.617188 232.277344 C 697.617188 241.507813 692.339844 249.679688 680.476563 249.679688 Z M 780.136719 206.707031 L 732.941406 206.707031 L 732.941406 211.714844 C 747.707031 211.714844 750.078125 214.878906 750.078125 233.597656 L 750.078125 267.347656 C 750.078125 286.0625 747.707031 289.492188 732.941406 289.492188 C 721.609375 287.910156 713.960938 281.84375 703.414063 270.246094 L 691.289063 257.0625 C 707.632813 254.164063 716.332031 243.878906 716.332031 232.277344 C 716.332031 217.78125 703.941406 206.707031 680.742188 206.707031 L 634.339844 206.707031 L 634.339844 211.714844 C 649.101563 211.714844 651.476563 214.878906 651.476563 233.597656 L 651.476563 267.347656 C 651.476563 286.0625 649.101563 289.492188 634.339844 289.492188 L 634.339844 294.5 L 686.804688 294.5 L 686.804688 289.492188 C 672.042969 289.492188 669.667969 286.0625 669.667969 267.347656 L 669.667969 257.855469 L 674.148438 257.855469 L 703.414063 294.5 L 780.136719 294.5 C 817.839844 294.5 834.183594 274.464844 834.183594 250.46875 C 834.183594 226.480469 817.839844 206.707031 780.136719 206.707031 "/>
<path style=" stroke:none;fill-rule:nonzero;fill:rgb(19.599915%,21.598816%,23.498535%);fill-opacity:1;" d="M 487.492188 259.4375 L 505.683594 205.648438 C 510.957031 190.09375 508.585938 185.613281 491.710938 185.613281 L 491.710938 180.339844 L 541.277344 180.339844 L 541.277344 185.613281 C 524.667969 185.613281 520.714844 189.566406 514.121094 208.816406 L 484.066406 298.984375 L 480.640625 298.984375 L 453.746094 216.460938 L 426.328125 298.984375 L 422.898438 298.984375 L 393.636719 208.816406 C 387.308594 189.566406 383.089844 185.613281 367.796875 185.613281 L 367.796875 180.339844 L 426.328125 180.339844 L 426.328125 185.613281 C 410.769531 185.613281 406.550781 189.304688 412.089844 205.648438 L 429.753906 259.4375 L 456.382813 180.339844 L 461.394531 180.339844 Z M 487.492188 259.4375 "/>
<path style=" stroke:none;fill-rule:nonzero;fill:rgb(19.599915%,21.598816%,23.498535%);fill-opacity:1;" d="M 577.128906 211.453125 C 552.875 211.453125 544.4375 233.332031 544.4375 250.46875 C 544.4375 267.871094 552.875 289.492188 577.128906 289.492188 C 601.652344 289.492188 610.085938 267.871094 610.085938 250.46875 C 610.085938 233.332031 601.652344 211.453125 577.128906 211.453125 M 577.128906 297.925781 C 548.128906 297.925781 524.398438 276.574219 524.398438 250.46875 C 524.398438 224.632813 548.128906 203.277344 577.128906 203.277344 C 606.132813 203.277344 629.859375 224.632813 629.859375 250.46875 C 629.859375 276.574219 606.132813 297.925781 577.128906 297.925781 "/>
<path style=" stroke:none;fill-rule:nonzero;fill:rgb(19.599915%,21.598816%,23.498535%);fill-opacity:1;" d="M 893.5 189.832031 L 878.472656 189.832031 L 878.472656 235.707031 L 893.5 235.707031 C 908.265625 235.707031 915.117188 225.425781 915.117188 213.035156 C 915.117188 200.378906 908.265625 189.832031 893.5 189.832031 M 899.300781 289.226563 L 899.300781 294.5 L 838.925781 294.5 L 838.925781 289.226563 C 856.589844 289.226563 859.753906 284.746094 859.753906 258.378906 L 859.753906 216.199219 C 859.753906 189.832031 856.589844 185.613281 838.925781 185.613281 L 838.925781 180.339844 L 893.5 180.339844 C 920.65625 180.339844 935.6875 194.3125 935.6875 213.035156 C 935.6875 231.226563 920.65625 245.460938 893.5 245.460938 L 878.472656 245.460938 L 878.472656 258.378906 C 878.472656 284.746094 881.636719 289.226563 899.300781 289.226563 "/>
<path style=" stroke:none;fill-rule:nonzero;fill:rgb(19.599915%,21.598816%,23.498535%);fill-opacity:1;" d="M 977.078125 249.679688 L 977.078125 214.617188 L 987.886719 214.617188 C 999.75 214.617188 1005.027344 222.789063 1005.027344 232.277344 C 1005.027344 241.507813 999.75 249.679688 987.886719 249.679688 Z M 1116.804688 269.71875 L 1115.488281 274.464844 C 1113.117188 283.164063 1110.214844 286.328125 1091.496094 286.328125 L 1087.804688 286.328125 C 1074.097656 286.328125 1071.722656 283.164063 1071.722656 264.445313 L 1071.722656 252.320313 C 1092.289063 252.320313 1093.871094 254.164063 1093.871094 267.871094 L 1098.878906 267.871094 L 1098.878906 228.589844 L 1093.871094 228.589844 C 1093.871094 242.296875 1092.289063 244.140625 1071.722656 244.140625 L 1071.722656 214.617188 L 1086.222656 214.617188 C 1104.941406 214.617188 1107.839844 217.78125 1110.214844 226.480469 L 1111.535156 231.488281 L 1115.75 231.488281 L 1113.90625 206.707031 L 1036.394531 206.707031 L 1036.394531 211.714844 C 1051.15625 211.714844 1053.53125 214.878906 1053.53125 233.597656 L 1053.53125 267.347656 C 1053.53125 284.46875 1051.511719 288.785156 1039.875 289.398438 C 1028.808594 287.710938 1021.214844 281.675781 1010.824219 270.246094 L 998.695313 257.0625 C 1015.042969 254.164063 1023.742188 243.878906 1023.742188 232.277344 C 1023.742188 217.78125 1011.351563 206.707031 988.152344 206.707031 L 941.75 206.707031 L 941.75 211.714844 C 956.511719 211.714844 958.882813 214.878906 958.882813 233.597656 L 958.882813 267.347656 C 958.882813 286.0625 956.511719 289.492188 941.75 289.492188 L 941.75 294.5 L 994.214844 294.5 L 994.214844 289.492188 C 979.453125 289.492188 977.078125 286.0625 977.078125 267.347656 L 977.078125 257.855469 L 981.558594 257.855469 L 1010.824219 294.5 L 1119.179688 294.5 L 1120.761719 269.71875 Z M 1116.804688 269.71875 "/>
<path style=" stroke:none;fill-rule:nonzero;fill:rgb(19.599915%,21.598816%,23.498535%);fill-opacity:1;" d="M 1170.328125 297.925781 C 1159.78125 297.925781 1150.550781 292.390625 1146.597656 288.960938 C 1145.277344 290.28125 1142.90625 294.238281 1142.378906 297.925781 L 1137.371094 297.925781 L 1137.371094 261.546875 L 1142.640625 261.546875 C 1144.753906 278.945313 1156.878906 289.226563 1172.433594 289.226563 C 1180.871094 289.226563 1187.726563 284.480469 1187.726563 276.574219 C 1187.726563 269.71875 1181.660156 264.445313 1170.851563 259.4375 L 1155.824219 252.320313 C 1145.277344 247.304688 1137.371094 238.605469 1137.371094 227.007813 C 1137.371094 214.351563 1149.234375 203.542969 1165.582031 203.542969 C 1174.28125 203.542969 1181.660156 206.707031 1186.144531 210.398438 C 1187.464844 209.339844 1188.78125 206.441406 1189.574219 203.277344 L 1194.582031 203.277344 L 1194.582031 234.390625 L 1189.046875 234.390625 C 1187.199219 221.996094 1180.34375 211.714844 1166.375 211.714844 C 1158.988281 211.714844 1152.132813 215.933594 1152.132813 222.527344 C 1152.132813 229.378906 1157.671875 233.070313 1170.328125 238.871094 L 1184.824219 245.988281 C 1197.484375 252.050781 1202.488281 261.808594 1202.488281 269.71875 C 1202.488281 286.328125 1187.988281 297.925781 1170.328125 297.925781 "/>
<path style=" stroke:none;fill-rule:nonzero;fill:rgb(19.599915%,21.598816%,23.498535%);fill-opacity:1;" d="M 1250.046875 297.925781 C 1239.5 297.925781 1230.269531 292.390625 1226.316406 288.960938 C 1225 290.28125 1222.625 294.238281 1222.101563 297.925781 L 1217.089844 297.925781 L 1217.089844 261.546875 L 1222.363281 261.546875 C 1224.472656 278.945313 1236.597656 289.226563 1252.15625 289.226563 C 1260.589844 289.226563 1267.449219 284.480469 1267.449219 276.574219 C 1267.449219 269.71875 1261.382813 264.445313 1250.574219 259.4375 L 1235.546875 252.320313 C 1225 247.304688 1217.089844 238.605469 1217.089844 227.007813 C 1217.089844 214.351563 1228.953125 203.542969 1245.300781 203.542969 C 1254.003906 203.542969 1261.382813 206.707031 1265.867188 210.398438 C 1267.183594 209.339844 1268.5 206.441406 1269.292969 203.277344 L 1274.300781 203.277344 L 1274.300781 234.390625 L 1268.765625 234.390625 C 1266.917969 221.996094 1260.0625 211.714844 1246.09375 211.714844 C 1238.710938 211.714844 1231.851563 215.933594 1231.851563 222.527344 C 1231.851563 229.378906 1237.390625 233.070313 1250.046875 238.871094 L 1264.546875 245.988281 C 1277.203125 252.050781 1282.210938 261.808594 1282.210938 269.71875 C 1282.210938 286.328125 1267.710938 297.925781 1250.046875 297.925781 "/>
<path style=" stroke:none;fill-rule:nonzero;fill:rgb(19.599915%,21.598816%,23.498535%);fill-opacity:1;" d="M 237.289063 118.644531 C 171.761719 118.644531 118.644531 171.761719 118.644531 237.289063 C 118.644531 302.8125 171.761719 355.933594 237.289063 355.933594 C 302.8125 355.933594 355.933594 302.8125 355.933594 237.289063 C 355.933594 171.761719 302.8125 118.644531 237.289063 118.644531 M 237.289063 125.761719 C 252.347656 125.761719 266.953125 128.710938 280.695313 134.523438 C 287.304688 137.316406 293.675781 140.777344 299.636719 144.804688 C 305.542969 148.796875 311.101563 153.378906 316.148438 158.429688 C 321.195313 163.476563 325.78125 169.03125 329.769531 174.9375 C 333.800781 180.898438 337.257813 187.273438 340.050781 193.878906 C 345.867188 207.625 348.8125 222.230469 348.8125 237.289063 C 348.8125 252.347656 345.867188 266.953125 340.050781 280.695313 C 337.257813 287.304688 333.800781 293.675781 329.769531 299.636719 C 325.78125 305.546875 321.195313 311.101563 316.148438 316.148438 C 311.101563 321.195313 305.542969 325.78125 299.636719 329.769531 C 293.675781 333.800781 287.304688 337.257813 280.695313 340.050781 C 266.953125 345.867188 252.347656 348.8125 237.289063 348.8125 C 222.230469 348.8125 207.625 345.867188 193.878906 340.050781 C 187.273438 337.257813 180.898438 333.800781 174.9375 329.769531 C 169.03125 325.78125 163.476563 321.195313 158.429688 316.148438 C 153.378906 311.101563 148.796875 305.546875 144.804688 299.636719 C 140.777344 293.675781 137.316406 287.304688 134.523438 280.695313 C 128.710938 266.953125 125.761719 252.347656 125.761719 237.289063 C 125.761719 222.230469 128.710938 207.625 134.523438 193.878906 C 137.316406 187.273438 140.777344 180.898438 144.804688 174.9375 C 148.796875 169.03125 153.378906 163.476563 158.429688 158.429688 C 163.476563 153.378906 169.03125 148.796875 174.9375 144.804688 C 180.898438 140.777344 187.273438 137.316406 193.878906 134.523438 C 207.625 128.710938 222.230469 125.761719 237.289063 125.761719 "/>
<path style=" stroke:none;fill-rule:nonzero;fill:rgb(19.599915%,21.598816%,23.498535%);fill-opacity:1;" d="M 324.050781 189.855469 C 324.472656 193.003906 324.714844 196.382813 324.714844 200.019531 C 324.714844 210.050781 322.835938 221.328125 317.195313 235.429688 L 286.996094 322.742188 C 316.390625 305.605469 336.15625 273.757813 336.15625 237.285156 C 336.15625 220.09375 331.765625 203.933594 324.050781 189.855469 M 239.023438 245.933594 L 209.355469 332.128906 C 218.214844 334.734375 227.582031 336.15625 237.289063 336.15625 C 248.800781 336.15625 259.847656 334.171875 270.121094 330.554688 C 269.859375 330.128906 269.613281 329.679688 269.414063 329.191406 Z M 304.035156 232.296875 C 304.035156 220.074219 299.644531 211.617188 295.882813 205.03125 C 290.871094 196.882813 286.171875 189.992188 286.171875 181.84375 C 286.171875 172.757813 293.0625 164.296875 302.773438 164.296875 C 303.210938 164.296875 303.628906 164.347656 304.054688 164.375 C 286.464844 148.257813 263.027344 138.417969 237.289063 138.417969 C 202.746094 138.417969 172.359375 156.140625 154.679688 182.980469 C 157 183.054688 159.1875 183.101563 161.042969 183.101563 C 171.382813 183.101563 187.394531 181.84375 187.394531 181.84375 C 192.71875 181.53125 193.351563 189.359375 188.027344 189.992188 C 188.027344 189.992188 182.667969 190.617188 176.710938 190.929688 L 212.714844 298.023438 L 234.355469 233.132813 L 218.949219 190.929688 C 213.625 190.617188 208.582031 189.992188 208.582031 189.992188 C 203.25 189.675781 203.875 181.53125 209.207031 181.84375 C 209.207031 181.84375 225.53125 183.101563 235.246094 183.101563 C 245.585938 183.101563 261.601563 181.84375 261.601563 181.84375 C 266.929688 181.53125 267.558594 189.359375 262.230469 189.992188 C 262.230469 189.992188 256.867188 190.617188 250.914063 190.929688 L 286.644531 297.207031 L 296.84375 264.890625 C 301.375 250.765625 304.035156 240.757813 304.035156 232.296875 M 138.417969 237.285156 C 138.417969 276.417969 161.160156 310.238281 194.144531 326.261719 L 146.980469 197.046875 C 141.492188 209.34375 138.417969 222.949219 138.417969 237.285156 "/>
</g>
</svg>
